gama.ui.shared/icons_svg/dark/experiment/experiment.reload.svg

<svg height="25" viewBox="-706.774 -3215.705 25 25" width="25" xmlns="http://www.w3.org/2000/svg"><g fill="none"><circle cx="-694.274" cy="-3203.205" fill="#666" r="12"/><circle cx="-694.274" cy="-3203.205" r="12" stroke="#fff" stroke-linecap="round" stroke-linejoin="round" stroke-width=".25"/><path d="m-699.7258-3207.6073c1.3144-1.6177 3.29775-2.5977 5.4444-2.5977 3.8656 0 7 3.1343 7 7 0 3.8654-3.1344 7-7 7-3.8655 0-6.7589-2.8857-6.9844-6.5723-.0156-.2177.14775-.3967.3655-.4123.2178-.0154.3967.1478.41225.3656.20225 3.2744 2.91665 5.841 6.21445 5.841s6.2222-2.7843 6.2222-6.222c0-3.438-2.7922-6.2223-6.23-6.2223-1.9211 0-3.6944.8789-4.8611 2.3333h2.1389c.2178 0 .3889.171.3889.389 0 .2177-.1711.3888-.3889.3888h-3.1111c-.2178 0-.3889-.1711-.3889-.3888v-3.1112c0-.2178.1711-.3888.3889-.3888s.3889.171.3889.3888z" fill="#c0e0ff"/></g></svg>

<?xml version="1.0" encoding="UTF-8" standalone="no"?>
<!DOCTYPE svg PUBLIC "-//W3C//DTD SVG 1.1//EN" "http://www.w3.org/Graphics/SVG/1.1/DTD/svg11.dtd">
<svg xmlns="http://www.w3.org/2000/svg" xmlns:xl="http://www.w3.org/1999/xlink" version="1.1" xmlns:dc="http://purl.org/dc/elements/1.1/" viewBox="-706.7741 -3215.705 24.999996 25" width="24.999996" height="25">
  <defs/>
  <g id="SOURCES" stroke-opacity="1" fill="none" stroke="none" fill-opacity="1" stroke-dasharray="none">
    <title>SOURCES</title>
    <g id="SOURCES_Dark">
      <title>Dark</title>
      <g id="Graphic_11376">
        <circle cx="-694.2741" cy="-3203.205" r="12.000018268838" fill="#666"/>
        <circle cx="-694.2741" cy="-3203.205" r="12.000018268838" stroke="white" stroke-linecap="round" stroke-linejoin="round" stroke-width=".25"/>
      </g>
      <g id="Graphic_11375">
        <path d="M -699.7258 -3207.6073 C -698.4114 -3209.225 -696.42805 -3210.205 -694.2814 -3210.205 C -690.4158 -3210.205 -687.2814 -3207.0707 -687.2814 -3203.205 C -687.2814 -3199.3396 -690.4158 -3196.205 -694.2814 -3196.205 C -698.1469 -3196.205 -701.0403 -3199.0907 -701.2658 -3202.7773 C -701.2814 -3202.995 -701.11805 -3203.174 -700.9003 -3203.1896 C -700.6825 -3203.205 -700.5036 -3203.0418 -700.48805 -3202.824 C -700.2858 -3199.5496 -697.5714 -3196.983 -694.2736 -3196.983 C -690.9758 -3196.983 -688.0514 -3199.7673 -688.0514 -3203.205 C -688.0514 -3206.643 -690.8436 -3209.4273 -694.2814 -3209.4273 C -696.2025 -3209.4273 -697.9758 -3208.5484 -699.1425 -3207.094 L -697.0036 -3207.094 C -696.7858 -3207.094 -696.6147 -3206.923 -696.6147 -3206.705 C -696.6147 -3206.4873 -696.7858 -3206.3162 -697.0036 -3206.3162 L -700.1147 -3206.3162 C -700.3325 -3206.3162 -700.5036 -3206.4873 -700.5036 -3206.705 L -700.5036 -3209.8162 C -700.5036 -3210.034 -700.3325 -3210.205 -700.1147 -3210.205 C -699.8969 -3210.205 -699.7258 -3210.034 -699.7258 -3209.8162 Z" fill="#c0e0ff"/>
      </g>
    </g>
  </g>
</svg>
